X: 11866
T: Emily Ball's Trip To Litton
R: jig
M: 6/8
K: Dmajor
A,DD DEF|A3 FED|B,EE E2 D|B,EF EDB,|
A,DD DEF|A3 gag|fed B2 d|1 AFE D2 B,:|2 AFE D2 A,||
|:B,EE E2 F|G3 FED|EA,A, EA,F|EA,A, EDC|
B,EE E2 F|G3 gag|fed B2 d|1 AFE D2 A,:|2 AFE D3||
|:a3 agf|g3 gfe|fed B2 d|ABc def|
g3 gfe|f3 fed|B2 d A2 d|1 Bcd efg:|2 BAF EDB,||

